client/public/images/icon_heartBeat.svg

<svg fill="none" height="20" viewBox="0 0 22 18" width="20" xmlns="http://www.w3.org/2000/svg"><g stroke="#fff"><path d="m19.876 3.46411c-.6896-1.34906-1.9814-2.28823-3.4773-2.528147-1.496-.239916-3.0167.248207-4.0935 1.313987l-1.305 1.19083-1.30503-1.19083c-1.07721-1.06559-2.59816-1.553321-4.09417-1.312906-1.49601.240416-2.78756 1.180126-3.47667 2.529566-.90995 1.80285-.55199 3.98694.88584 5.405l7.99003 8.25329 7.99-8.25579c1.4378-1.41806 1.7958-3.60215.8858-5.405z"/><path d="m5.375 7.75006h2.30667c.11843-.00004.22676.0667.28.1725l1.4775 2.95504c.05508.1098.16938.1771.29211.1721.12274-.0051.23114-.0815.27702-.1955l1.9834-4.95831c.0459-.11393.1543-.1904.277-.19543.1228-.00503.237.06231.2921.1721l.8559 1.705c.0532.1058.1615.17254.28.1725h2.9283"/></g></svg>

<svg width="20" height="20" viewBox="0 0 22 18" fill="none" xmlns="http://www.w3.org/2000/svg">
<path fillRule="evenodd" clipRule="evenodd" d="M19.876 3.46411C19.1864 2.11505 17.8946 1.17588 16.3987 0.935963C14.9027 0.696047 13.382 1.18417 12.3052 2.24995L11.0002 3.44078L9.69517 2.24995C8.61796 1.18436 7.09701 0.696629 5.601 0.937044C4.10499 1.17746 2.81344 2.11717 2.12433 3.46661C1.21438 5.26946 1.57234 7.45355 3.01017 8.87161L11.0002 17.1249L18.9902 8.86911C20.428 7.45105 20.786 5.26696 19.876 3.46411Z" stroke="white" strokeWidth="1.5" strokeLinecap="round" strokeLinejoin="round"/>
<path d="M5.375 7.75006H7.68167C7.8001 7.75002 7.90843 7.81676 7.96167 7.92256L9.43917 10.8776C9.49425 10.9874 9.60855 11.0547 9.73128 11.0497C9.85402 11.0446 9.96242 10.9682 10.0083 10.8542L11.9917 5.89589C12.0376 5.78196 12.146 5.70549 12.2687 5.70046C12.3915 5.69543 12.5057 5.76277 12.5608 5.87256L13.4167 7.57756C13.4699 7.68336 13.5782 7.7501 13.6967 7.75006H16.625" stroke="white" strokeWidth="1.5" strokeLinecap="round" strokeLinejoin="round"/>
</svg>
